components/Common/Svg/svgs/design.svg

<svg width="40" height="40" viewBox="0 0 40 40" fill="none" xmlns="http://www.w3.org/2000/svg">
<path fill-rule="evenodd" clip-rule="evenodd" d="M29.7839 6.88389C30.1432 5.87065 31.1109 5.14282 32.2457 5.14282C33.6858 5.14282 34.8574 6.31439 34.8574 7.75443C34.8574 9.19447 33.6858 10.366 32.2457 10.366C31.1109 10.366 30.1432 9.63821 29.7839 8.62496H26.5273C30.5888 10.9575 33.1163 15.2637 33.1163 19.9419C33.1163 20.4227 32.7265 20.8125 32.2457 20.8125C31.765 20.8125 31.3752 20.4227 31.3752 19.9419C31.3752 14.6895 27.6726 10.1211 22.6118 8.92774V9.4955C22.6118 9.97627 22.222 10.366 21.7413 10.366H18.2591C17.7784 10.366 17.3886 9.97627 17.3886 9.4955V8.9278C12.3278 10.1211 8.62521 14.6895 8.62521 19.9419C8.62521 20.4227 8.23544 20.8125 7.75467 20.8125C7.27391 20.8125 6.88414 20.4227 6.88414 19.9419C6.88414 15.2577 9.41664 10.954 13.4731 8.62438H10.2165C9.85719 9.63763 8.88956 10.366 7.75467 10.366C6.31463 10.366 5.14307 9.19447 5.14307 7.75443C5.14307 6.31439 6.31463 5.14282 7.75467 5.14282C8.88956 5.14282 9.85719 5.87065 10.2165 6.88389H17.3886V6.01336C17.3886 5.53259 17.7784 5.14282 18.2591 5.14282H21.7413C22.222 5.14282 22.6118 5.53259 22.6118 6.01336V6.88389H29.7839ZM6.88414 7.75443C6.88414 8.23444 7.27466 8.62496 7.75467 8.62496C8.23469 8.62496 8.62521 8.23444 8.62521 7.75443C8.62521 7.27442 8.23469 6.88389 7.75467 6.88389C7.27466 6.88389 6.88414 7.27442 6.88414 7.75443ZM19.1297 8.62496H20.8707V6.88389H19.1297V8.62496ZM31.3752 7.75443C31.3752 8.23444 31.7657 8.62496 32.2457 8.62496C32.7258 8.62496 33.1163 8.23444 33.1163 7.75443C33.1163 7.27442 32.7258 6.88389 32.2457 6.88389C31.7657 6.88389 31.3752 7.27442 31.3752 7.75443ZM19.2221 12.5898C19.5435 11.9444 20.4623 11.9506 20.7807 12.5898L26.8744 24.8353C27.0127 25.1131 26.9926 25.4434 26.8218 25.7024L23.4835 30.7655V33.9866C23.4835 34.4673 23.0937 34.8571 22.613 34.8571H17.3898C16.909 34.8571 16.5192 34.4673 16.5192 33.9866V30.7655L13.1809 25.7024C13.0101 25.4434 12.9901 25.1131 13.1283 24.8353L19.2221 12.5898ZM18.2603 31.375V33.116H21.7424V31.375H18.2603ZM17.8585 29.6339H22.1443L25.0925 25.1623L20.8719 16.681V25.2232C20.8719 25.7039 20.4821 26.0937 20.0014 26.0937C19.5206 26.0937 19.1308 25.7039 19.1308 25.2232V16.681L14.9103 25.1623L17.8585 29.6339Z" fill="#161616"/>
</svg>

<svg width="40" height="40" viewBox="0 0 40 40" fill="none" xmlns="http://www.w3.org/2000/svg"><path fill-rule="evenodd" clip-rule="evenodd" d="M29.784 6.884a2.616 2.616 0 0 1 2.462-1.741 2.615 2.615 0 0 1 2.611 2.611 2.615 2.615 0 0 1-2.611 2.612 2.616 2.616 0 0 1-2.462-1.741h-3.257c4.062 2.332 6.59 6.639 6.59 11.317a.87.87 0 0 1-1.742 0c0-5.252-3.702-9.82-8.763-11.014v.567c0 .481-.39.871-.87.871h-3.483a.87.87 0 0 1-.87-.87v-.568c-5.061 1.193-8.764 5.761-8.764 11.014a.87.87 0 1 1-1.74 0c0-4.684 2.532-8.988 6.588-11.318h-3.257a2.616 2.616 0 0 1-2.461 1.742 2.615 2.615 0 0 1-2.612-2.612 2.615 2.615 0 0 1 2.612-2.611c1.135 0 2.102.728 2.462 1.74h7.172v-.87c0-.48.39-.87.87-.87h3.482c.481 0 .87.39.87.87v.87h7.173Zm-22.9.87a.872.872 0 0 0 1.741 0 .872.872 0 0 0-1.74 0Zm12.246.871h1.74V6.884h-1.74v1.741Zm12.245-.87a.871.871 0 0 0 1.741 0 .872.872 0 0 0-1.74 0ZM19.222 12.59a.871.871 0 0 1 1.559 0l6.093 12.245a.87.87 0 0 1-.052.867l-3.338 5.063v3.222c0 .48-.39.87-.871.87H17.39a.87.87 0 0 1-.87-.87v-3.222l-3.34-5.063a.87.87 0 0 1-.052-.867l6.094-12.245Zm-.962 18.785v1.741h3.482v-1.741H18.26Zm-.402-1.741h4.286l2.949-4.472-4.221-8.481v8.542a.87.87 0 0 1-1.741 0v-8.542l-4.22 8.481 2.947 4.472Z" fill="#161616"/></svg>
